X: 68
T:Love at the Endings
R:Reel
C:Ed Reavy
M:C|
L:1/8
Q:1/2=112
K:D
FE|DEFA BcdB|AF~F2 AFEF|DEFA B2AF|FE~E2 B,EEF|
DEFA BcdB|AF~F2 ABde|fgfe dfec|dBAF D2:|
g2|fgfe defg|afbf afed|fgfe dfbf|afdf e2de|
fgfe dcdB|AF~F2 E2DE|FABc dfec|dBAF D2:|
